fs/book_clock_20_regular.svg

<svg viewBox="0 0 20 20" fill="none" xmlns="http://www.w3.org/2000/svg" height="1em" width="1em">
  <path d="M4 4V16C4 17.1046 4.89543 18 6 18H15.5C15.7761 18 16 17.7761 16 17.5C16 17.2239 15.7761 17 15.5 17H6C5.44772 17 5 16.5523 5 16H15C15.5523 16 16 15.5523 16 15V4C16 2.89543 15.1046 2 14 2H6C4.89543 2 4 2.89543 4 4ZM14 3C14.5523 3 15 3.44772 15 4V15H5V4C5 3.44772 5.44772 3 6 3H14ZM10 6C8.34315 6 7 7.34315 7 9C7 10.6569 8.34315 12 10 12C11.6569 12 13 10.6569 13 9C13 7.34315 11.6569 6 10 6ZM6 9C6 6.79086 7.79086 5 10 5C12.2091 5 14 6.79086 14 9C14 11.2091 12.2091 13 10 13C7.79086 13 6 11.2091 6 9ZM10 7.5C10 7.22386 9.77614 7 9.5 7C9.22386 7 9 7.22386 9 7.5V9.5C9 9.77614 9.22386 10 9.5 10H11C11.2761 10 11.5 9.77614 11.5 9.5C11.5 9.22386 11.2761 9 11 9H10V7.5Z" fill="#212121"/>
</svg>

<svg viewBox="0 0 20 20" fill="none" xmlns="http://www.w3.org/2000/svg" height="1em" width="1em">
  <path d="M4 4v12a2 2 0 0 0 2 2h9.5a.5.5 0 0 0 0-1H6a1 1 0 0 1-1-1h10a1 1 0 0 0 1-1V4a2 2 0 0 0-2-2H6a2 2 0 0 0-2 2Zm10-1a1 1 0 0 1 1 1v11H5V4a1 1 0 0 1 1-1h8Zm-4 3a3 3 0 1 0 0 6 3 3 0 0 0 0-6ZM6 9a4 4 0 1 1 8 0 4 4 0 0 1-8 0Zm4-1.5a.5.5 0 0 0-1 0v2a.5.5 0 0 0 .5.5H11a.5.5 0 0 0 0-1h-1V7.5Z" fill="#212121"/>
</svg>
